!!!SOCIAL_FUNCTION:	songs of games played in a ceremonial manner
!!!PDT:	1932
!!!OTL: No_18_Dancing_Song_from_the_South_God_(a).krn
!!!REG: Wisconsin
!!!LANG: Non-Tone
!!!LING_GROUP: Algonquin
**kern
*staff1
=1-
*clefF4
*k[f#c#g#]
*M2/4
4r
8r
16A\LL
16A\JJ
=2
4A\
8.F#\L
16E\Jk
=3
4E\
8F#\L
8E\J
=4
4F#\
8.E/L
16C#/Jk
=5
8C#/L
16C#/Jk
16r
8E\L
8E\J
=6
4F#\
8.E\L
16E\Jk
=7
8E\
8r
8E\L
8E\J
=8
4F#\
8.E/L
16C#/Jk
=9
8C#/L
8C#/J
8E\L
8E\J
=10
4F#\
8.E\L
16E\Jk
=11
8E\
8r
8E\L
8E\J
=12
4F#\
8.E/L
16C#/Jk
=13
8C#/L
8C#/J
8E\L
8E\J
=14
4F#\
8.E\L
16E\Jk
=15
8E\
8r
8r
16A\LL
16A\JJ
=16||
*M3/4
4A\
8.F#\L
16E\Jk
8E\L
16A\L
16A\JJ
=17||
*M2/4
4A\
8.F#\L
16E\Jk
=18
4E\
8F#\L
8E\J
=19
4F#\
8.E/L
16C#/Jk
=20
8C#/L
16C#/Jk
16r
8E\L
8E\J
=21
4F#\
8.E\L
16E\Jk
=22
8E\
8r
8E\L
8E\J
=23
4F#\
8.E/L
16C#/Jk
=24
8C#/L
8C#/J
8E\L
8E\J
=25
4F#\
8.E\L
16E\Jk
=26
8E\
8r
8E\L
8E\J
=27
4F#\
8.E/L
16C#/Jk
=28
8C#/L
8C#/J
8E\L
8E\J
=29
4F#\
8.E\L
16E\Jk
=30
8E\
8r
4r
==
*-
